X:1
T:Title
%%score { ( 1 3 ) | ( 2 4 ) }
L:1/8
M:4/4
K:F
V:1 treble nm="Grand Piano"
V:3 treble 
V:2 bass 
V:4 bass 
V:1
 z4 z2[Q:1/4=100] c2 | c2 [Fd]2 [EB]2 z C | A6 A2 | z4 z2 d2 |[M:3/4] [Ec]6 |[M:1/4] [Ec]2 | %6
[M:4/4] [CFf]2 [CFc]2 [Fd]2 [C^Fc]2 | [DGB]2 [C^FA]2 [B,DG]2 [=Fd]2 | z4 G4 |[M:3/4] F6 |] %10
V:2
 z4 z2 [F,A,F]2 | [F,A,F]2 [B,,B,]2 [C,G,]2 .[C,G,]2 | [F,CF]6 [F,CF]2 | %3
 [F,A,F]2 [F,C]2[K:treble] [G,CG]2 .[G,=B,G]2 |[M:3/4][K:bass] [C,C]6 |[M:1/4] [C,G,]2 | %6
[M:4/4] A,,2 A,,2 [B,,B,]2 A,,2 | G,,2 A,,2 B,,2 [=B,,_A,]2 | [C,A,]2 C,2 z2 B,[F,A,C] | %9
[M:3/4] [F,A,C]6 |] %10
V:3
 x8 | z4 z2 [Ec]2 | x8 | c2 [Af]2 e2 z F |[M:3/4] x6 |[M:1/4] x2 |[M:4/4] x8 | x8 | %8
 [Fc]2 [A,FA]2 [CF]2 EF |[M:3/4] x6 |] %10
V:4
 x8 | x8 | x8 | x4[K:treble] x4 |[M:3/4][K:bass] x6 |[M:1/4] x2 |[M:4/4] x8 | x8 | z4 C,4 | %9
[M:3/4] x6 |] %10

